app/img/logo-dark.svg

<svg width="198" height="21" viewBox="0 0 198 21" fill="none" xmlns="http://www.w3.org/2000/svg">
<g clip-path="url(#clip0)">
<path d="M1.10194 3.31024L3.80671 3.31024L4.4139 0.271484L8.66425 0.271484L8.05706 3.31024L10.4306 3.31024L11.0378 0.271484L15.2882 0.271484L14.681 3.31024L16.8338 3.31024L16.7234 6.62032H14.0738L13.5218 9.49629H15.6746L15.5642 12.8064H12.8042L12.197 15.8451H8.00186L8.60905 12.8064H6.23548L5.62829 15.8451L1.37794 15.8451L1.98513 12.8064H-0.112442L-0.00204333 9.49629H2.70272L3.25472 6.62032L1.10194 6.62032L1.10194 3.31024ZM6.84267 9.49629H9.21625L9.76824 6.62032L7.44987 6.62032L6.84267 9.49629Z" fill="#D90002"/>
<path d="M40.7941 0.271484L42.2845 6.51179L46.4244 0.271484L50.9508 0.271484L40.6837 15.7909H36.1573L39.3037 10.9614L36.2125 0.271484L40.7941 0.271484Z" fill="black"/>
<path d="M52.3826 0.271484L58.6202 0.271484C62.1529 0.271484 63.7537 1.46528 63.7537 3.5273C63.7805 4.41743 63.5235 5.29352 63.0187 6.03298C62.5139 6.77244 61.7866 7.33828 60.9385 7.65133C61.5895 7.79178 62.1709 8.14975 62.5835 8.66425C62.9962 9.17875 63.2147 9.81797 63.2017 10.473C63.2108 10.7095 63.1923 10.9462 63.1465 11.1785C62.5945 13.8916 60.497 15.7909 55.9154 15.7909L49.3467 15.7909L52.3826 0.271484ZM58.7306 10.5816C58.7306 9.82187 58.1234 9.49629 56.8538 9.49629H54.977L54.3698 12.4808L56.2466 12.4808C57.6818 12.4808 58.3994 12.1009 58.6754 10.9614C58.7247 10.841 58.7437 10.7107 58.7306 10.5816ZM59.393 4.55831C59.393 3.85288 58.841 3.63583 57.737 3.63583L56.1362 3.63583L55.5842 6.29474H57.185C58.5098 6.29474 59.117 5.9149 59.3378 4.93815C59.383 4.81674 59.4018 4.68733 59.393 4.55831Z" fill="black"/>
<path d="M77.5529 0.271484L79.7056 15.7909H75.0137L74.7377 13.2405H69.3834L68.1138 15.7909H63.4219L71.8122 0.271484L77.5529 0.271484ZM71.1498 9.71335H74.4065L73.8545 4.23273L71.1498 9.71335Z" fill="black"/>
<path d="M88.7047 10.7986L87.1591 10.7986L86.1656 15.7909H81.7496L84.8408 0.271484L90.8023 0.271484C94.2799 0.271484 96.543 1.57381 96.543 4.28699C96.5311 4.68677 96.4943 5.08545 96.4326 5.48079C95.715 9.11645 92.6791 10.7986 88.7047 10.7986ZM92.0167 4.99242C92.0167 4.01567 91.2991 3.63583 90.0295 3.63583L88.5943 3.63583L87.8215 7.48854H89.2567C90.7471 7.48854 91.6855 6.9459 91.9615 5.53505C91.9615 5.37226 92.0167 5.15521 92.0167 4.99242Z" fill="black"/>
<path d="M118.789 3.79862L114.373 3.79862L115.091 0.271484L128.394 0.271484L127.676 3.79862L123.26 3.79862L120.832 15.8451L116.416 15.8451L118.789 3.79862Z" fill="black"/>
<path d="M134.245 10.7986L132.699 10.7986L131.706 15.7909H127.29L130.381 0.271484L136.397 0.271484C139.875 0.271484 142.138 1.57381 142.138 4.28699C142.126 4.68677 142.089 5.08545 142.028 5.48079C141.255 9.11645 138.219 10.7986 134.245 10.7986ZM137.557 4.99242C137.557 4.01567 136.839 3.63583 135.57 3.63583L134.134 3.63583L133.362 7.48854H134.797C136.287 7.48854 137.225 6.94591 137.501 5.53505C137.547 5.35786 137.566 5.17498 137.557 4.99242Z" fill="black"/>
<path d="M142.854 10.093C142.854 4.23256 147.105 0 152.459 0C156.599 0 158.862 2.3876 158.862 6.02325C158.862 11.8295 154.557 16.062 149.257 16.062C145.173 16.062 142.854 13.7287 142.854 10.093ZM154.336 6.56589C154.336 4.66667 153.397 3.52713 151.797 3.52713C149.533 3.52713 147.436 5.91473 147.436 9.49612C147.436 11.3411 148.374 12.4806 149.975 12.4806C152.183 12.5349 154.336 10.2015 154.336 6.56589Z" fill="black"/>
<path d="M162.729 0.271484L167.035 0.271484L165.324 8.7366L172.168 0.271484L176.529 0.271484L173.438 15.7909H169.132L170.844 7.32575L163.999 15.7909H159.638L162.729 0.271484Z" fill="black"/>
<path d="M182.268 3.79862L177.852 3.79862L178.57 0.271484L191.873 0.271484L191.155 3.79862L186.739 3.79862L184.311 15.8451L179.895 15.8451L182.268 3.79862Z" fill="black"/>
<path d="M107.196 0C110.563 0 113.875 1.73643 113.654 5.96899L109.735 5.96899C109.514 4.17829 108.189 3.68992 106.478 3.68992C103.718 3.68992 102.007 5.91473 101.51 8.41085C101.069 10.6899 102.504 12.3178 104.822 12.3178C105.679 12.3537 106.528 12.1347 107.256 11.6894C107.985 11.2442 108.56 10.5933 108.907 9.8217H112.992C111.501 14.3256 107.527 16.062 104.105 16.062C99.9647 16.062 96.3215 13.2946 97.3151 7.92248C98.3087 2.55039 102.835 0 107.196 0Z" fill="black"/>
<path d="M29.3682 0C32.7353 0 36.0473 1.73643 35.8265 5.96899L31.9073 5.96899C31.6865 4.1783 30.3618 3.68992 28.6506 3.68992C25.8906 3.68992 24.1794 5.91473 23.6826 8.41085C23.241 10.6899 24.6762 12.3178 26.9946 12.3178C27.8518 12.3537 28.7001 12.1347 29.4288 11.6894C30.1575 11.2442 30.7327 10.5933 31.0794 9.82171H35.1641C33.6737 14.3256 29.6994 16.062 26.277 16.062C22.1371 16.062 18.4939 13.2946 19.4875 7.92248C20.5915 2.49612 25.0626 0 29.3682 0Z" fill="black"/>
<path d="M194.523 16.0605C195.987 16.0605 197.173 14.8701 197.173 13.4016C197.173 11.9331 195.987 10.7427 194.523 10.7427C193.06 10.7427 191.874 11.9331 191.874 13.4016C191.874 14.8701 193.06 16.0605 194.523 16.0605Z" fill="#D90002"/>
</g>
<defs>
<clipPath id="clip0">
<rect width="198" height="21" fill="black"/>
</clipPath>
</defs>
</svg>

<svg width="198" height="21" fill="none" xmlns="http://www.w3.org/2000/svg"><g clip-path="url(#clip0)"><path d="M1.102 3.31h2.705L4.414.271h4.25l-.607 3.04h2.374l.607-3.04h4.25l-.607 3.04h2.153l-.11 3.31h-2.65l-.552 2.875h2.153l-.11 3.31h-2.76l-.608 3.04H8.002l.607-3.04H6.235l-.607 3.04h-4.25l.607-3.04H-.112l.11-3.31h2.705l.552-2.876H1.102V3.31zm5.74 6.186h2.374l.552-2.876H7.45l-.607 2.876z" fill="#D90002"/><path d="M40.794.271l1.49 6.24 4.14-6.24h4.527l-10.267 15.52h-4.527l3.147-4.83L36.212.271h4.582zm11.589 0h6.237c3.533 0 5.134 1.194 5.134 3.256.027.89-.23 1.767-.735 2.506a4.333 4.333 0 01-2.08 1.618c.65.14 1.232.499 1.645 1.013.412.515.63 1.154.618 1.809.009.236-.01.473-.055.705-.553 2.714-2.65 4.613-7.232 4.613h-6.568L52.383.27zm6.348 10.31c0-.76-.608-1.085-1.877-1.085h-1.877l-.607 2.985h1.877c1.435 0 2.152-.38 2.428-1.52.05-.12.069-.25.056-.38zm.662-6.023c0-.705-.552-.922-1.656-.922h-1.6l-.553 2.659h1.601c1.325 0 1.932-.38 2.153-1.357a.91.91 0 00.055-.38zM77.553.271l2.153 15.52h-4.692l-.276-2.55h-5.355l-1.27 2.55h-4.691L71.812.27h5.74zM71.15 9.713h3.256l-.552-5.48-2.704 5.48zm17.555 1.086h-1.546l-.993 4.992H81.75L84.84.27h5.962c3.478 0 5.741 1.303 5.741 4.016-.012.4-.049.798-.11 1.194-.718 3.635-3.754 5.318-7.728 5.318zm3.312-5.807c0-.976-.718-1.356-1.987-1.356h-1.436l-.772 3.853h1.435c1.49 0 2.428-.543 2.704-1.954 0-.163.056-.38.056-.543zm26.772-1.193h-4.416l.718-3.528h13.303l-.718 3.528h-4.416l-2.428 12.046h-4.416L118.789 3.8zm15.456 7h-1.546l-.993 4.992h-4.416L130.381.27h6.016c3.478 0 5.741 1.303 5.741 4.016-.012.4-.049.798-.11 1.194-.773 3.635-3.809 5.318-7.783 5.318zm3.312-5.807c0-.976-.718-1.356-1.987-1.356h-1.436l-.772 3.853h1.435c1.49 0 2.428-.543 2.704-1.954.046-.177.065-.36.056-.543zm5.297 5.101c0-5.86 4.251-10.093 9.605-10.093 4.14 0 6.403 2.388 6.403 6.023 0 5.806-4.305 10.039-9.605 10.039-4.084 0-6.403-2.333-6.403-5.969zm11.482-3.527c0-1.9-.939-3.039-2.539-3.039-2.264 0-4.361 2.388-4.361 5.97 0 1.844.938 2.984 2.539 2.984 2.208.054 4.361-2.28 4.361-5.915zm8.393-6.295h4.306l-1.711 8.466L172.168.27h4.361l-3.091 15.52h-4.306l1.712-8.465-6.845 8.465h-4.361L162.729.27zm19.539 3.528h-4.416L178.57.27h13.303l-.718 3.528h-4.416l-2.428 12.046h-4.416L182.268 3.8zM107.196 0c3.367 0 6.679 1.736 6.458 5.969h-3.919c-.221-1.79-1.546-2.28-3.257-2.28-2.76 0-4.471 2.226-4.968 4.722-.441 2.279.994 3.907 3.312 3.907a4.322 4.322 0 002.434-.629 4.217 4.217 0 001.651-1.867h4.085c-1.491 4.504-5.465 6.24-8.887 6.24-4.14 0-7.784-2.767-6.79-8.14C98.31 2.55 102.835 0 107.196 0zM29.368 0c3.367 0 6.68 1.736 6.459 5.969h-3.92c-.22-1.79-1.545-2.28-3.256-2.28-2.76 0-4.472 2.226-4.968 4.722-.442 2.279.993 3.907 3.312 3.907a4.323 4.323 0 002.434-.629 4.216 4.216 0 001.65-1.867h4.085c-1.49 4.504-5.465 6.24-8.887 6.24-4.14 0-7.783-2.767-6.79-8.14C20.593 2.496 25.064 0 29.369 0z" fill="#000"/><path d="M194.523 16.06c1.464 0 2.65-1.19 2.65-2.658a2.654 2.654 0 00-2.65-2.66 2.654 2.654 0 00-2.649 2.66 2.654 2.654 0 002.649 2.659z" fill="#D90002"/></g><defs><clipPath id="clip0"><path fill="#000" d="M0 0h198v21H0z"/></clipPath></defs></svg>
